X: 1
T: Johnny Wilmot's Jig
C: Johnny Wilmot
Z: Toby A. Rider <darkrider1:tullochgorm.com>
M: 6/8
L: 1/8
R: Jig
K: G
g \
| "G"dBB BAB | "Em"GEE EGE | "G"DB,D GAB | "C"cBc "D7"A2g |
| "G"dBB BAB |  "C"GEE EGE | "G"DB,D GAB | "D7"cBA "G"G3 :|
c \
|  "G"Bdg gdB | "C"ceg gec | "G"Bdg gdB | "C"cBc "D7"A2c |
|1 "G"Bdg gdB | "C"ceg gfe | "G"dcB "D7"AGA | "G"BGG G2 :|
|2 "G"Bdg Bdg | "C"ceg ceg | "G"dcB "D7"AGA | "G"BGG G2 :|
